dist/svg/t-ball.svg

<svg width="16" height="16" viewBox="0 0 16 16" fill="rgb(34, 34, 34)" xmlns="http://www.w3.org/2000/svg"><title>t-ball</title><path d="M1.326 12.412C0.495 11.171 0 9.64298 0 8.00098C0 3.58298 3.582 0.000976562 8 0.000976562C10.347 0.000976562 12.457 1.01098 13.921 2.62098L13.927 2.62798C13.679 2.45098 13.392 2.30698 13.084 2.21198L13.063 2.20598C11.291 1.65398 8.723 2.36098 6.387 3.86798C8.26 2.75098 10.284 2.25498 11.72 2.70198C13.958 3.39798 13.913 6.12498 11.618 8.78998C10.285 10.329 8.57 11.503 6.62 12.167L6.539 12.191C6.192 12.31 5.793 12.379 5.377 12.379C5.063 12.379 4.759 12.34 4.468 12.266L4.493 12.271C3.571 11.984 3.404 11.215 3.574 10.186C3.824 9.33098 4.117 8.59798 4.472 7.90098L4.438 7.97498L5.812 7.96998L6.065 7.42298L4.688 7.42698L5.545 5.58998H4.882L4.845 5.59298C3.933 6.47398 2.795 7.12798 1.527 7.45998L1.475 7.47198L1.242 7.98498L2.2 7.98298C2.169 8.04598 2.139 8.10798 2.109 8.17198C1.916 8.48898 1.726 8.86098 1.565 9.24698L1.544 9.30298C1.516 9.37798 1.478 9.45198 1.457 9.52898C1.245 10.004 1.121 10.559 1.121 11.143C1.121 11.598 1.196 12.035 1.334 12.442L1.326 12.414V12.412ZM14.782 3.75598C15.317 5.20898 14.648 7.37898 12.8 9.52598C10.026 12.752 5.644 14.702 3.015 13.884C2.69 13.785 2.407 13.644 2.154 13.464L2.163 13.47C3.626 15.029 5.7 16 8 16C12.418 16 16 12.418 16 7.99998C16 6.42798 15.546 4.96098 14.763 3.72398L14.782 3.75598Z" fill="rgb(34, 34, 34)" fill-opacity="1.00"/></svg>

<!-- Generated by Trend Micro Style Portal -->
<svg version="1.1" xmlns="http://www.w3.org/2000/svg" width="16" height="16" viewBox="0 0 16 16">
  <title>t-ball</title>
  <path fill="rgb(34,34,34)" d="M1.326 12.412c-0.831-1.241-1.326-2.769-1.326-4.411 0-4.418 3.582-8 8-8 2.347 0 4.457 1.010 5.921 2.62l0.006 0.007c-0.248-0.177-0.535-0.321-0.843-0.416l-0.021-0.006c-1.772-0.552-4.34 0.155-6.676 1.662 1.873-1.117 3.897-1.613 5.333-1.166 2.238 0.696 2.193 3.423-0.102 6.088-1.333 1.539-3.048 2.713-4.998 3.377l-0.081 0.024c-0.347 0.119-0.746 0.188-1.162 0.188-0.314 0-0.618-0.039-0.909-0.113l0.025 0.005c-0.922-0.287-1.089-1.056-0.919-2.085 0.25-0.855 0.543-1.588 0.898-2.285l-0.034 0.074 1.374-0.005 0.253-0.547-1.377 0.004 0.857-1.837h-0.663l-0.037 0.003c-0.912 0.881-2.050 1.535-3.318 1.867l-0.052 0.012-0.233 0.513 0.958-0.002c-0.031 0.063-0.061 0.125-0.091 0.189-0.193 0.317-0.383 0.689-0.544 1.075l-0.021 0.056c-0.028 0.075-0.066 0.149-0.087 0.226-0.212 0.475-0.336 1.030-0.336 1.614 0 0.455 0.075 0.892 0.213 1.299l-0.008-0.028zM14.782 3.756c0.535 1.453-0.134 3.623-1.982 5.77-2.774 3.226-7.156 5.176-9.785 4.358-0.325-0.099-0.608-0.24-0.861-0.42l0.009 0.006c1.463 1.559 3.537 2.53 5.837 2.53 4.418 0 8-3.582 8-8 0-1.572-0.454-3.039-1.237-4.276l0.019 0.033z"></path>
</svg>
